X:243
T:score45
L:1/8
Q:1/4=96
M:6/8
I:linebreak $
K:F
 (.F.F.F A2 E | D3 C3) | (FGA F2 f | c3 c2) (A |$ c2 G B2 A | F2 F F3) | (FGA F2 E | G3-) G2 z |] %8
